X:61
T:Portsmouth
R:Hornpipe
M:4/4
L:1/8
K:G clef=treble
D2 [|:"G"G3A BAGF|"C"E4e4|"G"d2B2 "C"cBAG|"D"A6D2|
"G"G3A BAGF|"C"E4e4|"G"d2B2 "D"cBAB|1"G"G6 D2:|2"G"G6 d2|]
[|:"G"g3a bagf|"Em"g2d2B2d2|"G"g2B2 "C"cBAG|"D"A6 D2|
"G"G3A BAGF|"C"E4e4|"G"d2B2 "D"cBAB|1"G"G6d2:|2"G"G6D2|]

